public/assets/staidium-text-logo-clean.svg

<svg xmlns="http://www.w3.org/2000/svg" width="400" height="100" viewBox="0 0 400 100"><defs><style>.text-fill{fill:currentColor}</style></defs><g class="staidium-text"><path d="M15 25Q0 25 0 40t15 15h10c5 0 7 2 7 5s-2 5-7 5H15c-5 0-7 2-7 5s2 5 7 5h10q15 0 15-15T25 45H15c-5 0-7-2-7-5s2-5 7-5h10c5 0 7-2 7-5s-2-5-7-5Zm35 0v10h10v40h10V35h10V25Zm40 50-5-15h20l-5 15h10l15-50H85L75 75Zm-2-25h14l-7-20Z" class="text-fill"/><circle cx="135" cy="50" r="25" style="fill:#dc2626"/><path d="M130 25h10v50h-10zm40 0v50h20c15 0 20-5 20-25s-5-25-20-25Zm10 10h10c5 0 10 2 10 15s-5 15-10 15h-10Zm40-10h10v50h-10zm20 0v35q0 15 15 15h10q15 0 15-15V25h-10v35c0 3-2 5-5 5h-10c-3 0-5-2-5-5V25Zm50 0v50h10V45l10 20h10l10-20v30h10V25h-15l-10 25-10-25Z" class="text-fill"/></g></svg>

<svg xmlns="http://www.w3.org/2000/svg" viewBox="0 0 400 100" width="400" height="100">
  <defs>
    <style>
      .text-fill { fill: currentColor; }
      .accent-fill { fill: #dc2626; }
    </style>
  </defs>
  
  <!-- STAIDIUM text logo -->
  <g class="staidium-text">
    <!-- S -->
    <path class="text-fill" d="M15 25 C5 25, 0 30, 0 40 C0 50, 5 55, 15 55 L25 55 C30 55, 32 57, 32 60 C32 63, 30 65, 25 65 L15 65 C10 65, 8 67, 8 70 C8 73, 10 75, 15 75 L25 75 C35 75, 40 70, 40 60 C40 50, 35 45, 25 45 L15 45 C10 45, 8 43, 8 40 C8 37, 10 35, 15 35 L25 35 C30 35, 32 33, 32 30 C32 27, 30 25, 25 25 Z"/>
    
    <!-- T -->
    <path class="text-fill" d="M50 25 L50 35 L60 35 L60 75 L70 75 L70 35 L80 35 L80 25 Z"/>
    
    <!-- A -->
    <path class="text-fill" d="M90 75 L85 60 L105 60 L100 75 L110 75 L125 25 L115 25 L95 25 L85 25 L75 75 Z M88 50 L102 50 L95 30 Z"/>
    
    <!-- I -->
    <circle class="accent-fill" cx="135" cy="50" r="25"/>
    <rect class="text-fill" x="130" y="25" width="10" height="50"/>
    
    <!-- D -->
    <path class="text-fill" d="M170 25 L170 75 L190 75 C205 75, 210 70, 210 50 C210 30, 205 25, 190 25 Z M180 35 L190 35 C195 35, 200 37, 200 50 C200 63, 195 65, 190 65 L180 65 Z"/>
    
    <!-- I -->
    <rect class="text-fill" x="220" y="25" width="10" height="50"/>
    
    <!-- U -->
    <path class="text-fill" d="M240 25 L240 60 C240 70, 245 75, 255 75 L265 75 C275 75, 280 70, 280 60 L280 25 L270 25 L270 60 C270 63, 268 65, 265 65 L255 65 C252 65, 250 63, 250 60 L250 25 Z"/>
    
    <!-- M -->
    <path class="text-fill" d="M290 25 L290 75 L300 75 L300 45 L310 65 L320 65 L330 45 L330 75 L340 75 L340 25 L325 25 L315 50 L305 25 Z"/>
  </g>
</svg>
